X: 3
T: Return Of Spring, The
Z: ceolachan
S: https://thesession.org/tunes/6645#setting18301
R: barndance
M: 4/4
L: 1/8
K: Gmaj
G [|d2- dB G2- GD | G>B ed dc cB | c2- cA F2- FE | F>A ed dc Bc |
d2- dB G2- GD | G>B ed dc c>B | Af f>B Ae e>c | dB c/B/A/F/ GF G2 ||
g2- ge ff f>d | ee eB d2- dB | G>B ed F2- FD | F>A ed G2- G/B/c/d/ |
gg g>e ff f>d | ee eB d2- dB | G>B ed F2- Fe/f/ | gf ef g2 g>e ||
|: dB g>f ee a>g | fd ef ed BG/B/ | dB g>f ee a>g |[1 fd ef g2 g>e :|[2 fd ef g2 ge |]
